course_UvA-DL/introduction-to-pytorch/pytorch_computation_graph.svg

<svg xmlns="http://www.w3.org/2000/svg" xmlns:xlink="http://www.w3.org/1999/xlink" width="171" height="301" viewBox="-0.5 -0.5 171 301" xmlns:v="https://vecta.io/nano"><style><![CDATA[.B{pointer-events:all}.C{text-anchor:middle}.D{stroke:#36393d}.E{fill:#000}.F{font-family:Helvetica}.G{font-size:15px}.H{font-weight:bold}.I{fill:none}.J{pointer-events:stroke}.K{stroke:#000}.L{stroke-miterlimit:10}]]></style><ellipse cx="145" cy="15" rx="25" ry="15" fill="#cdeb8b" class="B D"/><text x="144.5" y="19.5" class="C E F G H">x</text><ellipse cx="65" cy="15" rx="25" ry="15" fill="#eee" class="B D"/><text x="64.5" y="19.5" class="C E F G H">2</text><ellipse cx="105" cy="85" rx="25" ry="15" fill="#fc9" class="B D"/><text x="104.5" y="89.5" class="C E F G H">a</text><g class="K L"><path d="M112.58 70.71l19.57-36.59" class="I J"/><path d="M134.62 29.49l-.21 7.82-2.26-3.19-3.91-.11z" class="B"/><path d="M98.45 69.49L77.06 33.52" class="I J"/><path d="M74.37 29.01l6.59 4.23-3.9.28-2.12 3.3z" class="B"/></g><ellipse cx="105" cy="155" rx="25" ry="15" fill="#fc9" class="B D"/><text x="104.5" y="159.5" class="C E F G H">b</text><g class="K L"><path d="M105 140v-33.63" class="I J"/><path d="M105 101.12l3.5 7-3.5-1.75-3.5 1.75z" class="B"/></g><ellipse cx="65" cy="225" rx="25" ry="15" fill="#fc9" class="B D"/><text x="64.5" y="229.5" class="C E F G H">c</text><ellipse cx="25" cy="155" rx="25" ry="15" fill="#eee" class="B D"/><text x="24.5" y="159.5" class="C E F G H">3</text><g class="K L"><path d="M71.78 210.56l17.06-36.21" class="I J"/><path d="M91.07 169.6l.19 7.83-2.42-3.08-3.92.09z" class="B"/><path d="M57 211.71l-20.84-36.96" class="I J"/><path d="M33.58 170.18l6.49 4.38-3.91.19-2.19 3.24z" class="B"/></g><ellipse cx="65" cy="285" rx="25" ry="15" fill="#fc9" class="B D"/><text x="64.5" y="289.5" class="C E F G H">y</text><g class="K L"><path d="M65 270v-23.63" class="I J"/><path d="M65 241.12l3.5 7-3.5-1.75-3.5 1.75z" class="B"/></g><switch><a transform="translate(0 -5)" xlink:href="https://desk.draw.io/support/solutions/articles/16000042487" target="_blank"><text font-size="10" x="50%" y="100%" class="C">Viewer does not support full SVG 1.1</text></a></switch></svg>

<?xml version="1.0" encoding="UTF-8"?>
<!DOCTYPE svg PUBLIC "-//W3C//DTD SVG 1.1//EN" "http://www.w3.org/Graphics/SVG/1.1/DTD/svg11.dtd">
<svg xmlns="http://www.w3.org/2000/svg" xmlns:xlink="http://www.w3.org/1999/xlink" version="1.1" width="171px" height="301px" viewBox="-0.5 -0.5 171 301"><defs/><g><ellipse cx="145" cy="15" rx="25" ry="15" fill="#cdeb8b" stroke="#36393d" pointer-events="all"/><g transform="translate(-0.5 -0.5)"><switch><foreignObject style="overflow: visible; text-align: left;" pointer-events="none" width="100%" height="100%" requiredFeatures="http://www.w3.org/TR/SVG11/feature#Extensibility"><div xmlns="http://www.w3.org/1999/xhtml" style="display: flex; align-items: unsafe center; justify-content: unsafe center; width: 48px; height: 1px; padding-top: 15px; margin-left: 121px;"><div style="box-sizing: border-box; font-size: 0; text-align: center; "><div style="display: inline-block; font-size: 15px; font-family: Helvetica; color: #000000; line-height: 1.2; pointer-events: all; font-weight: bold; white-space: normal; word-wrap: normal; ">x</div></div></div></foreignObject><text x="145" y="20" fill="#000000" font-family="Helvetica" font-size="15px" text-anchor="middle" font-weight="bold">x</text></switch></g><ellipse cx="65" cy="15" rx="25" ry="15" fill="#eeeeee" stroke="#36393d" pointer-events="all"/><g transform="translate(-0.5 -0.5)"><switch><foreignObject style="overflow: visible; text-align: left;" pointer-events="none" width="100%" height="100%" requiredFeatures="http://www.w3.org/TR/SVG11/feature#Extensibility"><div xmlns="http://www.w3.org/1999/xhtml" style="display: flex; align-items: unsafe center; justify-content: unsafe center; width: 48px; height: 1px; padding-top: 15px; margin-left: 41px;"><div style="box-sizing: border-box; font-size: 0; text-align: center; "><div style="display: inline-block; font-size: 15px; font-family: Helvetica; color: #000000; line-height: 1.2; pointer-events: all; font-weight: bold; white-space: normal; word-wrap: normal; "><span style="font-weight: normal">2</span></div></div></div></foreignObject><text x="65" y="20" fill="#000000" font-family="Helvetica" font-size="15px" text-anchor="middle" font-weight="bold">2</text></switch></g><ellipse cx="105" cy="85" rx="25" ry="15" fill="#ffcc99" stroke="#36393d" pointer-events="all"/><g transform="translate(-0.5 -0.5)"><switch><foreignObject style="overflow: visible; text-align: left;" pointer-events="none" width="100%" height="100%" requiredFeatures="http://www.w3.org/TR/SVG11/feature#Extensibility"><div xmlns="http://www.w3.org/1999/xhtml" style="display: flex; align-items: unsafe center; justify-content: unsafe center; width: 48px; height: 1px; padding-top: 85px; margin-left: 81px;"><div style="box-sizing: border-box; font-size: 0; text-align: center; "><div style="display: inline-block; font-size: 15px; font-family: Helvetica; color: #000000; line-height: 1.2; pointer-events: all; font-weight: bold; white-space: normal; word-wrap: normal; "><span>a</span></div></div></div></foreignObject><text x="105" y="90" fill="#000000" font-family="Helvetica" font-size="15px" text-anchor="middle" font-weight="bold">a</text></switch></g><path d="M 112.58 70.71 L 132.15 34.12" fill="none" stroke="#000000" stroke-miterlimit="10" pointer-events="stroke"/><path d="M 134.62 29.49 L 134.41 37.31 L 132.15 34.12 L 128.24 34.01 Z" fill="#000000" stroke="#000000" stroke-miterlimit="10" pointer-events="all"/><path d="M 98.45 69.49 L 77.06 33.52" fill="none" stroke="#000000" stroke-miterlimit="10" pointer-events="stroke"/><path d="M 74.37 29.01 L 80.96 33.24 L 77.06 33.52 L 74.94 36.82 Z" fill="#000000" stroke="#000000" stroke-miterlimit="10" pointer-events="all"/><ellipse cx="105" cy="155" rx="25" ry="15" fill="#ffcc99" stroke="#36393d" pointer-events="all"/><g transform="translate(-0.5 -0.5)"><switch><foreignObject style="overflow: visible; text-align: left;" pointer-events="none" width="100%" height="100%" requiredFeatures="http://www.w3.org/TR/SVG11/feature#Extensibility"><div xmlns="http://www.w3.org/1999/xhtml" style="display: flex; align-items: unsafe center; justify-content: unsafe center; width: 48px; height: 1px; padding-top: 155px; margin-left: 81px;"><div style="box-sizing: border-box; font-size: 0; text-align: center; "><div style="display: inline-block; font-size: 15px; font-family: Helvetica; color: #000000; line-height: 1.2; pointer-events: all; font-weight: bold; white-space: normal; word-wrap: normal; "><span>b</span></div></div></div></foreignObject><text x="105" y="160" fill="#000000" font-family="Helvetica" font-size="15px" text-anchor="middle" font-weight="bold">b</text></switch></g><path d="M 105 140 L 105 106.37" fill="none" stroke="#000000" stroke-miterlimit="10" pointer-events="stroke"/><path d="M 105 101.12 L 108.5 108.12 L 105 106.37 L 101.5 108.12 Z" fill="#000000" stroke="#000000" stroke-miterlimit="10" pointer-events="all"/><ellipse cx="65" cy="225" rx="25" ry="15" fill="#ffcc99" stroke="#36393d" pointer-events="all"/><g transform="translate(-0.5 -0.5)"><switch><foreignObject style="overflow: visible; text-align: left;" pointer-events="none" width="100%" height="100%" requiredFeatures="http://www.w3.org/TR/SVG11/feature#Extensibility"><div xmlns="http://www.w3.org/1999/xhtml" style="display: flex; align-items: unsafe center; justify-content: unsafe center; width: 48px; height: 1px; padding-top: 225px; margin-left: 41px;"><div style="box-sizing: border-box; font-size: 0; text-align: center; "><div style="display: inline-block; font-size: 15px; font-family: Helvetica; color: #000000; line-height: 1.2; pointer-events: all; font-weight: bold; white-space: normal; word-wrap: normal; "><span>c</span></div></div></div></foreignObject><text x="65" y="230" fill="#000000" font-family="Helvetica" font-size="15px" text-anchor="middle" font-weight="bold">c</text></switch></g><ellipse cx="25" cy="155" rx="25" ry="15" fill="#eeeeee" stroke="#36393d" pointer-events="all"/><g transform="translate(-0.5 -0.5)"><switch><foreignObject style="overflow: visible; text-align: left;" pointer-events="none" width="100%" height="100%" requiredFeatures="http://www.w3.org/TR/SVG11/feature#Extensibility"><div xmlns="http://www.w3.org/1999/xhtml" style="display: flex; align-items: unsafe center; justify-content: unsafe center; width: 48px; height: 1px; padding-top: 155px; margin-left: 1px;"><div style="box-sizing: border-box; font-size: 0; text-align: center; "><div style="display: inline-block; font-size: 15px; font-family: Helvetica; color: #000000; line-height: 1.2; pointer-events: all; font-weight: bold; white-space: normal; word-wrap: normal; "><span style="font-weight: normal">3</span></div></div></div></foreignObject><text x="25" y="160" fill="#000000" font-family="Helvetica" font-size="15px" text-anchor="middle" font-weight="bold">3</text></switch></g><path d="M 71.78 210.56 L 88.84 174.35" fill="none" stroke="#000000" stroke-miterlimit="10" pointer-events="stroke"/><path d="M 91.07 169.6 L 91.26 177.43 L 88.84 174.35 L 84.92 174.44 Z" fill="#000000" stroke="#000000" stroke-miterlimit="10" pointer-events="all"/><path d="M 57 211.71 L 36.16 174.75" fill="none" stroke="#000000" stroke-miterlimit="10" pointer-events="stroke"/><path d="M 33.58 170.18 L 40.07 174.56 L 36.16 174.75 L 33.97 177.99 Z" fill="#000000" stroke="#000000" stroke-miterlimit="10" pointer-events="all"/><ellipse cx="65" cy="285" rx="25" ry="15" fill="#ffcc99" stroke="#36393d" pointer-events="all"/><g transform="translate(-0.5 -0.5)"><switch><foreignObject style="overflow: visible; text-align: left;" pointer-events="none" width="100%" height="100%" requiredFeatures="http://www.w3.org/TR/SVG11/feature#Extensibility"><div xmlns="http://www.w3.org/1999/xhtml" style="display: flex; align-items: unsafe center; justify-content: unsafe center; width: 48px; height: 1px; padding-top: 285px; margin-left: 41px;"><div style="box-sizing: border-box; font-size: 0; text-align: center; "><div style="display: inline-block; font-size: 15px; font-family: Helvetica; color: #000000; line-height: 1.2; pointer-events: all; font-weight: bold; white-space: normal; word-wrap: normal; "><span style="font-weight: normal">y</span></div></div></div></foreignObject><text x="65" y="290" fill="#000000" font-family="Helvetica" font-size="15px" text-anchor="middle" font-weight="bold">y</text></switch></g><path d="M 65 270 L 65 246.37" fill="none" stroke="#000000" stroke-miterlimit="10" pointer-events="stroke"/><path d="M 65 241.12 L 68.5 248.12 L 65 246.37 L 61.5 248.12 Z" fill="#000000" stroke="#000000" stroke-miterlimit="10" pointer-events="all"/></g><switch><g requiredFeatures="http://www.w3.org/TR/SVG11/feature#Extensibility"/><a transform="translate(0,-5)" xlink:href="https://desk.draw.io/support/solutions/articles/16000042487" target="_blank"><text text-anchor="middle" font-size="10px" x="50%" y="100%">Viewer does not support full SVG 1.1</text></a></switch></svg>
